X: 425
U:~=!turn!
M:C
L:1/8
K:Bb
(D<C) !segno!| B,>FD>F G<C C(D/C/) | B,>FD>B F>dB>f | d>c (B/c/)(d/B/) c<C C(D/C/) | B,>FD>B ~F2 (FE)(DC) | B,>FD>F G<C C(D/C/) |
f<db>f g<c Tc(d/e/) | (f>b)(d>e) Tf2 f(d/e/) | (f>b)d>f g<c Tc(d/e/) | f(g/a/) (b>a) (g>f) e>d {/d}c>B {Bc}d>B c<C C(D/E/) | F>B (TG/F/)(E/D/) ~F2 D>G !segno!|]


